02-v2/src/about/images/quote.svg

<svg width="42" height="38" viewBox="0 0 42 38" fill="none" xmlns="http://www.w3.org/2000/svg">
<path d="M15.8047 21.4219V37.75H0.726562V24.8594C0.726562 17.8802 1.5599 12.8281 3.22656 9.70312C5.41406 5.53646 8.8776 2.38542 13.6172 0.25L17.0547 5.71875C14.1901 6.91667 12.0807 8.71354 10.7266 11.1094C9.3724 13.4531 8.61719 16.8906 8.46094 21.4219H15.8047ZM40.0234 21.4219V37.75H24.9453V24.8594C24.9453 17.8802 25.7786 12.8281 27.4453 9.70312C29.6328 5.53646 33.0964 2.38542 37.8359 0.25L41.2734 5.71875C38.4089 6.91667 36.2995 8.71354 34.9453 11.1094C33.5911 13.4531 32.8359 16.8906 32.6797 21.4219H40.0234Z" fill="white"/>
</svg>

<svg width="42" height="38" fill="none" xmlns="http://www.w3.org/2000/svg"><path d="M15.805 21.422V37.75H.727V24.86c0-6.98.833-12.032 2.5-15.157C5.414 5.536 8.877 2.385 13.617.25l3.438 5.469c-2.865 1.198-4.974 2.995-6.328 5.39-1.355 2.344-2.11 5.782-2.266 10.313h7.344zm24.218 0V37.75H24.945V24.86c0-6.98.834-12.032 2.5-15.157 2.188-4.167 5.651-7.318 10.39-9.453l3.438 5.469c-2.864 1.198-4.974 2.995-6.328 5.39-1.354 2.344-2.11 5.782-2.265 10.313h7.343z" fill="#fff"/></svg>
